fs/fps_30_48_filled.svg

<svg viewBox="0 0 48 48" fill="none" xmlns="http://www.w3.org/2000/svg" height="1em" width="1em">
  <path d="M16.0006 14.5C17.7788 14.4998 19.0001 13.1496 19.0001 11.75C19.0001 10.3503 17.7785 9 16.0001 9C14.6791 9 13.6251 9.76274 13.2015 10.8784C12.9769 11.4699 12.4872 12 11.8545 12C10.8203 12 9.93364 11.1634 10.2349 10.1741C10.9749 7.74432 13.3662 6 16.0001 6C19.3138 6 22.0001 8.57436 22.0001 11.75C22.0001 13.4337 21.2449 14.9484 20.0415 16C21.2449 17.0516 22.0001 18.5663 22.0001 20.25C22.0001 23.4256 19.3138 26 16.0001 26C13.3662 26 10.9749 24.2557 10.2349 21.8259C9.93364 20.8366 10.8203 20 11.8545 20C12.4872 20 12.9769 20.5301 13.2015 21.1216C13.6251 22.2373 14.6791 23 16.0001 23C17.7785 23 19.0001 21.6497 19.0001 20.25C19.0001 18.8504 17.7778 17.5002 15.9996 17.5C15.1714 17.4997 14.5001 16.8283 14.5001 16C14.5001 15.1716 15.1721 14.5 16.0006 14.5ZM24 12C24 8.68629 26.6863 6 30 6C33.3137 6 36 8.68629 36 12V20C36 23.3137 33.3137 26 30 26C26.6863 26 24 23.3137 24 20V12ZM27 20C27 21.6569 28.3431 23 30 23C31.6569 23 33 21.6569 33 20V12C33 10.3431 31.6569 9 30 9C28.3431 9 27 10.3431 27 12V20ZM9.25 30C8.55964 30 8 30.5596 8 31.25V42.7896C8 43.48 8.55964 44.0396 9.25 44.0396C9.94036 44.0396 10.5 43.48 10.5 42.7896V38.5H14.75C15.4404 38.5 16 37.9404 16 37.25C16 36.5596 15.4404 36 14.75 36H10.5V32.5H15.756C16.4464 32.5 17.006 31.9404 17.006 31.25C17.006 30.5596 16.4464 30 15.756 30H9.25ZM20.75 30C20.0596 30 19.5 30.5596 19.5 31.25V42.7896C19.5 43.48 20.0596 44.0396 20.75 44.0396C21.4404 44.0396 22 43.48 22 42.7896V38.5H24.25C26.5972 38.5 28.5 36.5972 28.5 34.25C28.5 31.9028 26.5972 30 24.25 30H20.75ZM24.25 36H22V32.5H24.25C25.2165 32.5 26 33.2835 26 34.25C26 35.2165 25.2165 36 24.25 36ZM34.6556 32.5C33.7412 32.5 33 33.2412 33 34.1556C33 35.0699 33.7412 35.8111 34.6556 35.8111H35.9056C38.1669 35.8111 40 37.6443 40 39.9056C40 42.1669 38.1669 44 35.9056 44H34.25C32.1789 44 30.5 42.3211 30.5 40.25C30.5 39.5596 31.0596 39 31.75 39C32.4404 39 33 39.5596 33 40.25C33 40.9404 33.5596 41.5 34.25 41.5H35.9056C36.7861 41.5 37.5 40.7861 37.5 39.9056C37.5 39.025 36.7861 38.3111 35.9056 38.3111H34.6556C32.3605 38.3111 30.5 36.4506 30.5 34.1556C30.5 31.8605 32.3605 30 34.6556 30H36.25C38.3211 30 40 31.6789 40 33.75C40 34.4404 39.4404 35 38.75 35C38.0596 35 37.5 34.4404 37.5 33.75C37.5 33.0596 36.9404 32.5 36.25 32.5H34.6556Z" fill="#212121"/>
</svg>

<svg viewBox="0 0 48 48" fill="none" xmlns="http://www.w3.org/2000/svg" height="1em" width="1em">
  <path d="M16 14.5c1.779 0 3-1.35 3-2.75S17.78 9 16 9c-1.32 0-2.375.763-2.799 1.878-.224.592-.714 1.122-1.347 1.122-1.034 0-1.92-.837-1.62-1.826C10.975 7.744 13.367 6 16 6c3.314 0 6 2.574 6 5.75 0 1.684-.755 3.198-1.959 4.25 1.204 1.052 1.96 2.566 1.96 4.25 0 3.176-2.687 5.75-6 5.75-2.635 0-5.026-1.744-5.766-4.174-.301-.99.585-1.826 1.62-1.826.632 0 1.122.53 1.346 1.122.424 1.115 1.478 1.878 2.8 1.878 1.777 0 3-1.35 3-2.75S17.777 17.5 16 17.5a1.5 1.5 0 1 1 0-3Zm8-2.5a6 6 0 0 1 12 0v8a6 6 0 0 1-12 0v-8Zm3 8a3 3 0 1 0 6 0v-8a3 3 0 1 0-6 0v8ZM9.25 30C8.56 30 8 30.56 8 31.25v11.54a1.25 1.25 0 1 0 2.5 0V38.5h4.25a1.25 1.25 0 1 0 0-2.5H10.5v-3.5h5.256a1.25 1.25 0 1 0 0-2.5H9.25Zm11.5 0c-.69 0-1.25.56-1.25 1.25v11.54a1.25 1.25 0 1 0 2.5 0V38.5h2.25a4.25 4.25 0 0 0 0-8.5h-3.5Zm3.5 6H22v-3.5h2.25a1.75 1.75 0 1 1 0 3.5Zm10.406-3.5a1.656 1.656 0 1 0 0 3.311h1.25a4.094 4.094 0 0 1 0 8.189H34.25a3.75 3.75 0 0 1-3.75-3.75 1.25 1.25 0 1 1 2.5 0c0 .69.56 1.25 1.25 1.25h1.656a1.594 1.594 0 0 0 0-3.189h-1.25a4.156 4.156 0 1 1 0-8.311h1.594A3.75 3.75 0 0 1 40 33.75a1.25 1.25 0 1 1-2.5 0c0-.69-.56-1.25-1.25-1.25h-1.594Z" fill="#212121"/>
</svg>
